dist/svgs/unicons/line/border-top.svg

<svg xmlns="http://www.w3.org/2000/svg" viewBox="0 0 24 24"><path d="M8 18.5a1 1 0 101 1 1 1 0 00-1-1zm0-8a1 1 0 101 1 1 1 0 00-1-1zm4 8a1 1 0 101 1 1 1 0 00-1-1zm-8-12a1 1 0 101 1 1 1 0 00-1-1zm0 12a1 1 0 101 1 1 1 0 00-1-1zm0-14h16a1 1 0 000-2H4a1 1 0 000 2zm0 10a1 1 0 101 1 1 1 0 00-1-1zm0-4a1 1 0 101 1 1 1 0 00-1-1zm8-4a1 1 0 101 1 1 1 0 00-1-1zm8 8a1 1 0 101 1 1 1 0 00-1-1zm0 4a1 1 0 101 1 1 1 0 00-1-1zm-8-4a1 1 0 101 1 1 1 0 00-1-1zm8-8a1 1 0 101 1 1 1 0 00-1-1zm0 4a1 1 0 101 1 1 1 0 00-1-1zm-8 0a1 1 0 101 1 1 1 0 00-1-1zm4 0a1 1 0 101 1 1 1 0 00-1-1zm0 8a1 1 0 101 1 1 1 0 00-1-1z"/></svg>

<svg xmlns="http://www.w3.org/2000/svg" viewBox="0 0 24 24"><path d="M8,18.5a1,1,0,1,0,1,1A1,1,0,0,0,8,18.5Zm0-8a1,1,0,1,0,1,1A1,1,0,0,0,8,10.5Zm4,8a1,1,0,1,0,1,1A1,1,0,0,0,12,18.5ZM4,6.5a1,1,0,1,0,1,1A1,1,0,0,0,4,6.5Zm0,12a1,1,0,1,0,1,1A1,1,0,0,0,4,18.5Zm0-14H20a1,1,0,0,0,0-2H4a1,1,0,0,0,0,2Zm0,10a1,1,0,1,0,1,1A1,1,0,0,0,4,14.5Zm0-4a1,1,0,1,0,1,1A1,1,0,0,0,4,10.5Zm8-4a1,1,0,1,0,1,1A1,1,0,0,0,12,6.5Zm8,8a1,1,0,1,0,1,1A1,1,0,0,0,20,14.5Zm0,4a1,1,0,1,0,1,1A1,1,0,0,0,20,18.5Zm-8-4a1,1,0,1,0,1,1A1,1,0,0,0,12,14.5Zm8-8a1,1,0,1,0,1,1A1,1,0,0,0,20,6.5Zm0,4a1,1,0,1,0,1,1A1,1,0,0,0,20,10.5Zm-8,0a1,1,0,1,0,1,1A1,1,0,0,0,12,10.5Zm4,0a1,1,0,1,0,1,1A1,1,0,0,0,16,10.5Zm0,8a1,1,0,1,0,1,1A1,1,0,0,0,16,18.5Z"/></svg>
